X:1
T:Dona Nobis Pacem
C:Traditional Canon
M:3/4
L:1/4
Q:1/4=90
K:F
!p!!cantabile! F | (F2 G) | (A2 G) | (F G A) | (B2 A) |
!mp! (G A B) | (c2 B) | (A2 G) | F2 F |
!mf! (c2 c) | (c2 B) | (A B c) | (d2 c) |
(B c d) | (e2 d) | (c2 B) | A2 A |
!mp! (A2 G) | (F E F) | (G2 F) | (E F G) |
!p! (A2 G) | (F E D) | (C D E) | F3 |]
w: Do-na no-bis pa-cem, pa-cem. Do-na no-bis pa-cem. Do-na no-bis pa-cem. Do-na no-bis pa-cem. Do-na no-bis pa-cem. Do-na no-bis pa-cem.
